blockchains/ethereum/assets/0x41e5560054824eA6B0732E656E3Ad64E20e94E45/logo.svg

<svg fill="none" height="250" viewBox="0 0 250 250" width="250" xmlns="http://www.w3.org/2000/svg"><path d="m244.905 99.0095c-10.279 0-20.537 0-31.038 0-9.744-28.532-28.213-49.1085-56.681-59.9595-18.864-7.1905-38.124-7.338-57.4126-1.548-39.1525 11.753-66.559 50.442-64.442 90.864 2.26 43.156 32.451 78.426 73.6326 86.524 43.355 8.525 90.168-16.717 104.931-63.849h30.958c-9.267 48.05-56.477 98.676-124.102 95.871-64.1366-2.659-115.36409-56.094-115.86659-120.969-.5025-64.918 49.02899-116.70648 109.99259-122.39648 67.75-6.32351 119.705 43.25598 130.028 95.46298zm-89.608 2.0995c-3.682-11.9355-15.124-20.386-28.143-20.477-13.178-.0925-24.89 8.267-28.6441 20.233-3.3175 10.574-.392 24.035 17.3941 33.786v34.489h22.09c0-11.713 0-23.194 0-34.585 17.09-9.31 20.638-22.639 17.303-33.446z" fill="#20a549"/></svg>

<svg width="250" height="250" viewBox="0 0 250 250" fill="none" xmlns="http://www.w3.org/2000/svg">
<path d="M244.905 99.0095C234.626 99.0095 224.368 99.0095 213.867 99.0095C204.123 70.4775 185.654 49.901 157.186 39.05C138.322 31.8595 119.062 31.712 99.7734 37.502C60.6209 49.255 33.2144 87.944 35.3314 128.366C37.5914 171.522 67.7824 206.792 108.964 214.89C152.319 223.415 199.132 198.173 213.895 151.041C224.178 151.041 234.512 151.041 244.853 151.041C235.586 199.091 188.376 249.717 120.751 246.912C56.6144 244.253 5.38691 190.818 4.88441 125.943C4.38191 61.025 53.9134 9.23652 114.877 3.54652C182.627 -2.77699 234.582 46.8025 244.905 99.0095ZM155.297 101.109C151.615 89.1735 140.173 80.723 127.154 80.632C113.976 80.5395 102.264 88.899 98.5099 100.865C95.1924 111.439 98.1179 124.9 115.904 134.651C115.904 146.058 115.904 157.614 115.904 169.14C123.396 169.14 130.617 169.14 137.994 169.14C137.994 157.427 137.994 145.946 137.994 134.555C155.084 125.245 158.632 111.916 155.297 101.109Z" fill="#20A549"/>
</svg>
